X:1
T:Title
%%score { 1 | ( 2 3 4 ) }
L:1/8
M:4/4
K:G
V:1 treble nm="Grand Piano"
V:2 bass 
V:3 bass 
V:4 bass 
V:1
 z4 z2[Q:1/4=100] [B,D]2 | [B,D]2 [B,G]2 [B,G]2 [DB]2 | [EB]3 [EA] [EA]2 [EB]2 | %3
 [Ec]3 [EAc] [GB]2 [FA]2 |[M:3/4] [GB]2 [Gd]4 |[M:1/4] [B,D]2 |[M:4/4] [B,D]2 [B,G]2 [B,G]2 [DB]2 | %7
 [EB]3 [EA] [EA]2 [EB]2 | [Ec]3 [EAc] [DGB]2 [CDA]2 |[M:3/4] [CDA]2 [B,DG]4 |[M:1/4] z2 | %11
[M:4/4] z2 [DB]A [B,G]2 z2 | z2 [Ec]B A2 [Ge]2 | [DGd]2 [DGB]2 [^CGA]2 [CEG]2 | %14
[M:3/4] [DGB]2 [DFA]4 |[M:1/4] [DG][DFA] |[M:4/4] B d3 c e3 | d2 B2 G2 A2 | B [Gd]3 [DFB]2 [CFA]2 | %19
[M:3/4] [B,G]6 |] %20
V:2
 z4 z2 [G,,G,]2 | [G,,G,]2 [G,,G,]2 [G,,G,]2 [G,,G,]2 | [C,G,]3 [C,G,] [C,G,]2 [B,,^G,]2 | %3
 [A,,A,]3 A,, [D,D]2 [D,D]2 |[M:3/4] [G,D]2 [G,B,]4 |[M:1/4] [G,,G,]2 | %6
[M:4/4] [G,,G,]2 [G,,G,]2 [G,,G,]2 [G,,G,]2 | [C,G,]3 [C,G,] [C,G,]2 [B,,^G,]2 | %8
 [A,,A,]3 A,, D,2 D,2 |[M:3/4] G,,2 G,,4 |[M:1/4][K:treble] B2 |[M:4/4] d6 z2 | e6 z2 | %13
 B,2 G,2 E,2 A,,2 |[M:3/4] D,2 D,4 |[M:1/4] B,,D, | %16
[M:4/4][K:treble] [G,DG] [G,B,G]3 [G,EG] [G,CG]3 | [G,B,G]2[K:bass] [G,D]2 [E,B,E]2 [E,A,^C]2 | %18
 [D,G,D] [D,B,]3 D,2 D,2 |[M:3/4] G,,6 |] %20
V:3
 x8 | x8 | x8 | x8 |[M:3/4] x6 |[M:1/4] x2 |[M:4/4] x8 | x8 | x8 |[M:3/4] x6 | %10
[M:1/4][K:treble] x2 |[M:4/4] z2 z C G,2 B2 | z2 z D C2 C2 | x8 |[M:3/4] x6 |[M:1/4] x2 | %16
[M:4/4][K:treble] x8 | x2[K:bass] x6 | x8 |[M:3/4] x6 |] %20
V:4
 x8 | x8 | x8 | x8 |[M:3/4] x6 |[M:1/4] x2 |[M:4/4] x8 | x8 | x8 |[M:3/4] x6 | %10
[M:1/4][K:treble] x2 |[M:4/4] z2 G,2 z4 | z2 C2 z4 | x8 |[M:3/4] x6 |[M:1/4] x2 | %16
[M:4/4][K:treble] x8 | x2[K:bass] x6 | x8 |[M:3/4] x6 |] %20

